X:597
T:Reel 597
M:4/4
K:Gmaj
L:1/8
dc|BABc dBGf|edcB AFD2|BABc defd|cAfA g2g2|bagb agfd|dgfa gedc|BABc de=fd|cAFA G2|ba|bgaf gfde|fdcA dGG2|BABc defg|fdcA G2Bc|BABc defd|cAfA g3a|bagf gddc|dggf g2|
